X:1
T:First of October
C:Nigel Gatherer
Z:Nigel Gatherer
M:4/4
L:1/4
K:D
DAA2 | BAA2 | DEFG | FEE2  |
DAA2 | BAA2 | DEFG | EDD2 |
dAA2 | BAA2 | DEFG | FEE2  |
dAA2 | BAA2 | DEFG | EDD2 |
